X:1
T:So Giebst Du, 10.10.10.10.8.4
T:So Giebst Du, 10.10.10.10.8.4
T:Johann Sebastian Bach (1685-1750)
T:Public Domain Courtesy of the Cyber Hymnal™
C:Johann Sebastian Bach (1685-1750)
Z:Public Domain
Z:Courtesy of the Cyber Hymnal™
%%score ( 1 2 ) ( 3 4 )
L:1/8
Q:1/4=110
M:4/4
K:Ab
V:1 treble 
V:2 treble 
V:3 bass 
V:4 bass 
V:1
 [FA]2 | [Gc]3 [GB] [FA]2 [Fc]2 | [FB]2 [EA]2 [FA]2 [EG]2 | [EA]6 [Ec]2 | [Ee]3 [Ed] [Ec]2 (cB) | %5
 (AG) F2 [DG]3 [DF] | [C=E]6 [EG]2 | [FB]3 [FA] [EG]2 A2 | [=DA]2 [EG]2 F3 z F | [EG]6 [EG]2 | %10
 [EA]2 [EB]2 [Ec]2 (3(c{d'}=de) | (=d3 c [G=B]2) [Ec]2 | [=Dc]3 [D=B] !fermata![=Ec]3 [CE] | %13
 [CF]2 [CG]2 [CA]2 (3(F{a}GA) | [DG]3 [DF] [C=E]2 [CF]2 | [CF]3 [C=E] [CF]4 |] %16
V:2
 x2 | x8 | x8 | x8 | x6 G2 | F2 F2 x4 | x8 | x6 (FE) | x4 E2 =D2 x | x8 | x6 A2 | A4 x4 | x8 | %13
 x6 C2 | x8 | x8 |] %16
V:3
 [F,C]2 | [=E,C]3 [E,C] [F,C]2 A,2 | [D,B,]2 [C,C]2 [B,,D]2 [B,,D]2 | [A,,C]6 A,2 | %4
 [G,B,]3 [G,B,] A,2 [=E,C]2 | C2 F,2 [B,,B,]3 [B,,A,] | [C,G,]6 [C,C]2 | %7
 [=D,B,]3 [D,B,] [E,B,]2 [A,,C]2 | [B,,B,]2 [E,B,]2 [B,,B,]3 [B,,B,] x | [E,B,]6 [E,B,]2 | %10
 [C,E]2 [G,,B,]2 [A,,A,]2 [A,C]2 | (F3 E [G,=D]2) [C,C]2 | D2 z !fermata![C,G,]3 [C,G,] x | %13
 A,2 [=E,G,]2 F,2 [F,A,]2 | [B,,B,]3 [B,,A,] [C,G,]2 [F,A,]2 | [C,G,]3 [C,G,] [F,A,]4 |] %16
V:4
 x2 | x6 (F,_E,) | x8 | x6 A,2 | x4 A,2 x2 | (F,E,) (D,C,) x4 | x8 | x8 | x9 | x8 | x8 | F,4 x4 | %12
 G,,3 (G,2 G,,) x2 | A,2 F,2 x4 | x8 | x8 |] %16

